img/5Regular_customers/Client3.svg

<svg width="178" height="98" viewBox="0 0 178 98" fill="none" xmlns="http://www.w3.org/2000/svg">
<g filter="url(#filter0_d)">
<rect x="4.5" y="0.5" width="169" height="89" rx="3.5" stroke="#AFB1B8"/>
<path d="M75.3457 65.7946C75.3607 65.795 75.3755 65.7982 75.3891 65.8041C75.4028 65.81 75.4152 65.8184 75.4254 65.8289L75.6312 66.0446C75.4714 66.2191 75.274 66.3588 75.0524 66.4539C74.7929 66.5577 74.5133 66.6078 74.2319 66.6009C73.9675 66.6061 73.7049 66.5594 73.4603 66.4637C73.2396 66.3758 73.0414 66.2437 72.879 66.0764C72.7132 65.9029 72.5855 65.6996 72.5034 65.4784C72.4135 65.2318 72.3692 64.9723 72.3723 64.7113C72.3686 64.4486 72.4166 64.1875 72.5137 63.9417C72.6036 63.7191 72.7391 63.5158 72.9124 63.3436C73.0881 63.1749 73.2982 63.0423 73.5297 62.9539C73.7831 62.8604 74.0528 62.8138 74.3245 62.8167C74.5769 62.8108 74.8279 62.8534 75.0627 62.9417C75.2664 63.0259 75.4535 63.1428 75.6157 63.2873L75.4434 63.5177C75.4315 63.5339 75.4167 63.548 75.3997 63.5593C75.3793 63.5726 75.3548 63.5787 75.3302 63.5765C75.3035 63.5747 75.2778 63.5663 75.2556 63.552L75.163 63.4907L75.0344 63.4123C74.9789 63.3832 74.9213 63.3578 74.8621 63.3363C74.7858 63.3103 74.7076 63.2898 74.628 63.275C74.5271 63.2573 74.4246 63.2491 74.3219 63.2505C74.1263 63.2482 73.9322 63.2832 73.7509 63.3534C73.5819 63.4185 73.4294 63.5171 73.3034 63.6427C73.1751 63.7762 73.0763 63.9329 73.0127 64.1034C72.9403 64.2985 72.9046 64.5043 72.9073 64.7113C72.9042 64.9214 72.9399 65.1305 73.0127 65.3289C73.0755 65.498 73.1725 65.6537 73.2982 65.7872C73.416 65.9117 73.5621 66.0089 73.7252 66.0715C73.8931 66.1379 74.0733 66.1712 74.2551 66.1696C74.3601 66.1711 74.465 66.1646 74.5689 66.15C74.7385 66.1302 74.9012 66.0741 75.0447 65.9858C75.1167 65.9405 75.1847 65.8897 75.2479 65.8338C75.2744 65.8098 75.3091 65.7958 75.3457 65.7946Z" fill="#AFB1B8"/>
<path d="M81.2871 64.7108C81.2903 64.9709 81.2432 65.2292 81.1482 65.473C81.0644 65.6941 80.9323 65.8958 80.7608 66.0648C80.5892 66.2338 80.382 66.3662 80.1528 66.4533C79.6492 66.6363 79.0925 66.6363 78.589 66.4533C78.3613 66.3648 78.1554 66.2321 77.9845 66.0636C77.8131 65.8916 77.68 65.6882 77.5936 65.4657C77.4083 64.972 77.4083 64.4325 77.5936 63.9388C77.6813 63.7162 77.8141 63.5122 77.9845 63.3384C78.1568 63.1752 78.3626 63.0476 78.589 62.9635C79.0919 62.7772 79.6499 62.7772 80.1528 62.9635C80.3813 63.0519 80.588 63.1846 80.7598 63.3531C80.9292 63.5235 81.0612 63.7243 81.1482 63.9437C81.2435 64.1892 81.2906 64.4492 81.2871 64.7108ZM80.747 64.7108C80.751 64.5028 80.718 64.2956 80.6492 64.0981C80.5916 63.929 80.4979 63.7729 80.374 63.6399C80.2534 63.5139 80.1049 63.4152 79.9393 63.3507C79.5734 63.2167 79.1684 63.2167 78.8024 63.3507C78.6368 63.4152 78.4884 63.5139 78.3678 63.6399C78.2422 63.7722 78.1475 63.9284 78.09 64.0981C77.9591 64.4971 77.9591 64.9246 78.09 65.3235C78.148 65.4931 78.2427 65.6492 78.3678 65.7818C78.4885 65.907 78.637 66.0049 78.8024 66.0685C79.169 66.1991 79.5728 66.1991 79.9393 66.0685C80.1048 66.0049 80.2533 65.907 80.374 65.7818C80.4974 65.6484 80.591 65.4925 80.6492 65.3235C80.7183 65.1261 80.7513 64.9189 80.747 64.7108Z" fill="#AFB1B8"/>
<path d="M85.3408 65.3532L85.3948 65.4904C85.4154 65.4414 85.4334 65.3973 85.4539 65.3532C85.4736 65.3071 85.4959 65.2621 85.5208 65.2184L86.8352 62.942C86.8609 62.9028 86.884 62.8783 86.9098 62.8709C86.9447 62.8608 86.9813 62.8566 87.0178 62.8587H87.4062V66.5613H86.9458V63.8388C86.9458 63.8045 86.9458 63.7653 86.9458 63.7237C86.9433 63.6812 86.9433 63.6387 86.9458 63.5962L85.6237 65.9046C85.6069 65.9391 85.58 65.9684 85.5463 65.9888C85.5125 66.0092 85.4733 66.02 85.4334 66.0197H85.3588C85.3187 66.0203 85.2794 66.0097 85.2456 65.9892C85.2118 65.9687 85.185 65.9393 85.1684 65.9046L83.8078 63.5815C83.8078 63.6256 83.8078 63.6698 83.8078 63.7139C83.8078 63.758 83.8078 63.7972 83.8078 63.8315V66.5539H83.3628V62.8587H83.7512C83.7877 62.8566 83.8243 62.8608 83.8592 62.8709C83.8911 62.886 83.9165 62.9111 83.9312 62.942L85.2739 65.2209C85.3003 65.263 85.3227 65.3073 85.3408 65.3532Z" fill="#AFB1B8"/>
<path d="M90.2869 65.1692V66.5562H89.7725V62.8585H90.9196C91.1362 62.8546 91.3521 62.8818 91.5601 62.9394C91.7266 62.9843 91.881 63.0629 92.0128 63.1697C92.127 63.2699 92.2151 63.394 92.27 63.5324C92.3307 63.6832 92.3604 63.8438 92.3575 64.0053C92.3597 64.1675 92.3274 64.3284 92.2623 64.4782C92.2005 64.6201 92.1054 64.7466 91.9845 64.8482C91.8525 64.9595 91.6974 65.043 91.5292 65.0933C91.329 65.1542 91.1195 65.1832 90.9093 65.179L90.2869 65.1692ZM90.2869 64.7723H90.9093C91.0446 64.7739 91.1792 64.7549 91.308 64.7159C91.4143 64.6818 91.5123 64.6277 91.5961 64.5566C91.6734 64.4888 91.7332 64.405 91.771 64.3116C91.8131 64.2128 91.8341 64.107 91.8327 64.0004C91.8387 63.8976 91.8211 63.7948 91.7811 63.6992C91.7412 63.6035 91.6798 63.5174 91.6013 63.4466C91.4047 63.3004 91.1579 63.2296 90.9093 63.2481H90.2869V64.7723Z" fill="#AFB1B8"/>
<path d="M97.2007 66.5612H96.7943C96.7536 66.5626 96.7135 66.5505 96.6812 66.5268C96.652 66.5038 96.6291 66.4744 96.6143 66.4411L96.2645 65.5466H94.5077L94.145 66.4411C94.1317 66.4738 94.1095 66.5025 94.0807 66.5244C94.048 66.5495 94.007 66.5625 93.965 66.5612H93.5586L95.1019 62.8582H95.6369L97.2007 66.5612ZM94.6543 65.1863H96.105L95.4928 63.6791C95.4461 63.5658 95.4074 63.4495 95.3771 63.3311L95.3179 63.5247C95.2999 63.5836 95.2794 63.6375 95.2614 63.6816L94.6543 65.1863Z" fill="#AFB1B8"/>
<path d="M99.4233 62.8754C99.4541 62.8915 99.4805 62.9141 99.5005 62.9416L101.751 65.7329C101.751 65.6887 101.751 65.6446 101.751 65.603C101.751 65.5613 101.751 65.5197 101.751 65.4804V62.8582H102.212V66.5612H101.954C101.918 66.5622 101.882 66.5547 101.849 66.5391C101.817 66.5215 101.789 66.4982 101.767 66.4705L99.5185 63.6817C99.521 63.7241 99.521 63.7666 99.5185 63.8091C99.5185 63.8508 99.5185 63.8875 99.5185 63.9218V66.5612H99.0581V62.8582H99.3308C99.3626 62.8574 99.3942 62.8632 99.4233 62.8754Z" fill="#AFB1B8"/>
<path d="M106.003 65.0884V66.5588H105.488V65.0884L104.066 62.8584H104.526C104.566 62.8561 104.605 62.8674 104.637 62.8902C104.665 62.914 104.688 62.9422 104.706 62.9735L105.596 64.4121C105.632 64.4733 105.663 64.5297 105.689 64.5836C105.715 64.6375 105.735 64.689 105.753 64.7405L105.82 64.5812C105.845 64.5229 105.874 64.4664 105.908 64.4121L106.785 62.9637C106.803 62.9348 106.826 62.9084 106.852 62.8853C106.882 62.8599 106.922 62.8467 106.962 62.8486H107.428L106.003 65.0884Z" fill="#AFB1B8"/>
<path d="M85.0859 56.6443C85.3097 56.6712 85.5361 56.6933 85.765 56.7129C89.2356 55.2337 92.1716 52.8127 94.206 49.7526C96.2404 46.6924 97.283 43.1289 97.2033 39.5073L93.3785 35.8633C94.1562 39.7191 93.7925 43.705 92.3279 47.3751C90.8634 51.0452 88.3559 54.2546 85.0859 56.6443Z" fill="#AFB1B8"/>
<path d="M83.7202 56.4748L83.8231 56.4944C87.3173 54.1132 89.9814 50.788 91.4708 46.9488C92.9601 43.1097 93.2063 38.9331 92.1774 34.9592L86.7296 29.769C88.9331 34.0353 89.82 38.8098 89.2873 43.5374C88.7546 48.265 86.824 52.7514 83.7202 56.4748Z" fill="#AFB1B8"/>
<path d="M102.196 43.7861C101.27 47.7654 99.0225 51.3541 95.7861 54.0196C94.841 54.8023 93.8214 55.4996 92.7407 56.1025C95.3761 55.3646 97.7983 54.0598 99.8207 52.289C101.843 50.5181 103.412 48.3284 104.405 45.8887L102.196 43.7861Z" fill="#AFB1B8"/>
<path d="M101.329 43.2002L98.1835 40.2031C98.1233 43.6201 97.1037 46.9594 95.2306 49.8739C93.3575 52.7885 90.6993 55.1718 87.5322 56.7764H87.5477C88.2534 56.7761 88.9586 56.736 89.6594 56.6563C92.6192 55.5053 95.2339 53.6742 97.2702 51.3262C99.3064 48.9782 100.701 46.1865 101.329 43.2002Z" fill="#AFB1B8"/>
<path d="M84.1757 27.5803L80.4229 24C77.0681 25.2351 74.1828 27.4064 72.1446 30.2297C70.1065 33.053 69.0105 36.3968 69 39.8234V39.8234C69.0126 43.6097 70.3502 47.2838 72.8012 50.2643C75.2521 53.2448 78.6764 55.3614 82.5321 56.2791C85.974 52.2838 87.9892 47.347 88.2847 42.186C88.5803 37.025 87.1409 31.9086 84.1757 27.5803Z" fill="#AFB1B8"/>
<path d="M110 42.649C109.987 38.1568 108.108 33.8522 104.773 30.6757C101.439 27.4992 96.9213 25.709 92.2062 25.6961C90.0274 25.6939 87.8671 26.077 85.835 26.8258L108.812 48.7166C109.599 46.7815 110.002 44.7241 110 42.649Z" fill="#AFB1B8"/>
</g>
<defs>
<filter id="filter0_d" x="0" y="0" width="178" height="98" filterUnits="userSpaceOnUse" color-interpolation-filters="sRGB">
<feFlood flood-opacity="0" result="BackgroundImageFix"/>
<feColorMatrix in="SourceAlpha" type="matrix" values="0 0 0 0 0 0 0 0 0 0 0 0 0 0 0 0 0 0 127 0"/>
<feOffset dy="4"/>
<feGaussianBlur stdDeviation="2"/>
<feColorMatrix type="matrix" values="0 0 0 0 0 0 0 0 0 0 0 0 0 0 0 0 0 0 0.25 0"/>
<feBlend mode="normal" in2="BackgroundImageFix" result="effect1_dropShadow"/>
<feBlend mode="normal" in="SourceGraphic" in2="effect1_dropShadow" result="shape"/>
</filter>
</defs>
</svg>

<svg width="178" height="98" fill="none" xmlns="http://www.w3.org/2000/svg"><g filter="url(#filter0_d)"><rect x="4.5" y=".5" width="169" height="89" rx="3.5" stroke="#AFB1B8"/><path d="M75.346 65.795a.117.117 0 01.08.034l.205.216c-.16.174-.357.314-.579.409-.26.104-.539.154-.82.147a2.01 2.01 0 01-.772-.137 1.671 1.671 0 01-.957-.986 2.163 2.163 0 01-.13-.767 2.016 2.016 0 01.14-.77c.09-.222.226-.425.4-.597.175-.17.385-.302.617-.39.253-.094.523-.14.794-.137.253-.006.504.036.739.125.203.084.39.2.553.345l-.173.23a.173.173 0 01-.043.042.11.11 0 01-.07.018.157.157 0 01-.074-.025l-.093-.061-.129-.079a1.401 1.401 0 00-.406-.137 1.642 1.642 0 00-.306-.024 1.533 1.533 0 00-.571.102 1.29 1.29 0 00-.448.29c-.128.133-.227.29-.29.46-.073.196-.108.401-.106.608-.003.21.033.42.106.618.063.169.16.325.285.458.118.125.264.222.427.284.168.067.348.1.53.099.105.001.21-.005.314-.02.17-.02.332-.076.476-.164.072-.046.14-.096.203-.152a.153.153 0 01.098-.04zM81.287 64.71c.003.26-.044.52-.139.763a1.655 1.655 0 01-.387.592 1.754 1.754 0 01-.608.388 2.296 2.296 0 01-1.564 0 1.778 1.778 0 01-.605-.39 1.74 1.74 0 01-.39-.597 2.166 2.166 0 010-1.527c.087-.223.22-.427.39-.6a1.78 1.78 0 01.605-.375 2.258 2.258 0 011.564 0c.228.088.435.22.607.39.17.17.301.37.388.59.096.245.143.505.14.767zm-.54 0a1.759 1.759 0 00-.098-.612 1.208 1.208 0 00-.71-.747 1.658 1.658 0 00-1.137 0 1.207 1.207 0 00-.712.747c-.13.4-.13.827 0 1.225a1.203 1.203 0 00.712.745c.367.131.77.131 1.137 0 .166-.063.314-.161.435-.286.123-.134.217-.29.275-.459.07-.197.102-.404.098-.612zM85.34 65.353l.055.137c.02-.049.038-.093.059-.137a1.32 1.32 0 01.067-.135l1.314-2.276c.026-.04.049-.064.075-.071a.322.322 0 01.108-.012h.388v3.702h-.46V63.84v-.115a1.085 1.085 0 010-.128l-1.322 2.309a.202.202 0 01-.078.084.216.216 0 01-.113.03h-.074c-.04.001-.08-.01-.113-.03a.2.2 0 01-.078-.084l-1.36-2.324v2.973h-.445v-3.695h.388a.322.322 0 01.108.012.15.15 0 01.072.071l1.343 2.279a.805.805 0 01.067.132zM90.287 65.17v1.386h-.515V62.86h1.148a2.25 2.25 0 01.64.08c.167.045.321.124.453.23.114.1.202.225.257.363.06.151.09.312.088.473.002.163-.03.323-.096.473a1.012 1.012 0 01-.278.37 1.27 1.27 0 01-.455.245c-.2.061-.41.09-.62.086l-.622-.01zm0-.398h.622c.136.002.27-.017.399-.056a.843.843 0 00.288-.16.651.651 0 00.175-.244.768.768 0 00.062-.312.677.677 0 00-.052-.3.707.707 0 00-.18-.253 1.033 1.033 0 00-.692-.199h-.622v1.524zM97.2 66.561h-.406a.181.181 0 01-.113-.034.226.226 0 01-.067-.086l-.35-.894h-1.756l-.363.894a.2.2 0 01-.064.083.18.18 0 01-.116.037h-.406l1.543-3.703h.535l1.564 3.703zm-2.546-1.375h1.451l-.612-1.507a2.614 2.614 0 01-.116-.348l-.06.194a1.842 1.842 0 01-.056.157l-.607 1.504zM99.423 62.875c.031.017.058.04.078.067l2.25 2.79v-.129-2.745h.461v3.703h-.258a.23.23 0 01-.105-.022.272.272 0 01-.082-.069l-2.248-2.788c.002.042.002.085 0 .127v2.753h-.46v-3.704h.272c.032 0 .063.005.092.017zM106.003 65.088v1.47h-.515v-1.47l-1.422-2.23h.46a.174.174 0 01.111.032.315.315 0 01.069.084l.89 1.438c.036.061.067.118.093.172.026.053.046.105.064.156l.067-.159c.025-.058.054-.115.088-.169l.877-1.448a.362.362 0 01.067-.079.16.16 0 01.11-.036h.466l-1.425 2.24zM85.086 56.644c.224.027.45.05.679.069 3.47-1.48 6.407-3.9 8.441-6.96 2.034-3.06 3.077-6.624 2.997-10.246l-3.825-3.644a20.22 20.22 0 01-1.05 11.512c-1.465 3.67-3.972 6.88-7.242 9.27z" fill="#AFB1B8"/><path d="M83.72 56.475l.103.02c3.494-2.382 6.158-5.707 7.648-9.546a19.54 19.54 0 00.706-11.99l-5.447-5.19a24.082 24.082 0 012.557 13.768c-.532 4.728-2.463 9.214-5.567 12.938zM102.196 43.786c-.926 3.98-3.174 7.568-6.41 10.234a20.213 20.213 0 01-3.045 2.082 18.187 18.187 0 007.08-3.813 17.078 17.078 0 004.584-6.4l-2.209-2.103z" fill="#AFB1B8"/><path d="M101.329 43.2l-3.145-2.997a18.475 18.475 0 01-2.953 9.67c-1.873 2.916-4.532 5.299-7.699 6.903h.016c.705 0 1.41-.04 2.111-.12a19.338 19.338 0 007.611-5.33 18.09 18.09 0 004.059-8.126zM84.176 27.58L80.423 24c-3.355 1.235-6.24 3.406-8.278 6.23-2.038 2.823-3.135 6.167-3.145 9.593.013 3.787 1.35 7.46 3.801 10.441 2.451 2.98 5.875 5.097 9.731 6.015 3.442-3.995 5.457-8.932 5.753-14.093.295-5.161-1.144-10.277-4.11-14.606zM110 42.649c-.013-4.492-1.892-8.797-5.227-11.973-3.334-3.177-7.852-4.967-12.567-4.98-2.179-.002-4.339.381-6.371 1.13l22.977 21.89A16.054 16.054 0 00110 42.65z" fill="#AFB1B8"/></g><defs><filter id="filter0_d" x="0" y="0" width="178" height="98" filterUnits="userSpaceOnUse" color-interpolation-filters="sRGB"><feFlood flood-opacity="0" result="BackgroundImageFix"/><feColorMatrix in="SourceAlpha" values="0 0 0 0 0 0 0 0 0 0 0 0 0 0 0 0 0 0 127 0"/><feOffset dy="4"/><feGaussianBlur stdDeviation="2"/><feColorMatrix values="0 0 0 0 0 0 0 0 0 0 0 0 0 0 0 0 0 0 0.25 0"/><feBlend in2="BackgroundImageFix" result="effect1_dropShadow"/><feBlend in="SourceGraphic" in2="effect1_dropShadow" result="shape"/></filter></defs></svg>
